icons/photos.svg

<svg width="16" height="15" xmlns="http://www.w3.org/2000/svg" version="1.1"><path fill="#000000" d="M2,1h12v2h1v11h-14v-11h1v-2M3,2v1h10v-1h-10M2,4v9h12v-9h-12M3,5h1v1h1v1h-1v1h1v1h-1v1h1v1h-1v1h-1v-7M8,5h1v1h3v1h1v5h-7v-5h1v-1h1v-1M8,7h-1v4h3v-3h1v3h1v-4h-4M8,8h1v2h-1z"/></svg>

<svg width="16" height="15" xmlns="http://www.w3.org/2000/svg"><path d="M2 1h12v2h1v11H1V3h1V1m1 1v1h10V2H3M2 4v9h12V4H2m1 1h1v1h1v1H4v1h1v1H4v1h1v1H4v1H3V5m5 0h1v1h3v1h1v5H6V7h1V6h1V5m0 2H7v4h3V8h1v3h1V7H8m0 1h1v2H8z"/></svg>
